X:1
T:Redhaired Lass, The
R:reel
M:4/4
L:1/8
K:G
DGGF G2BG|~G2BG AGEG|DGGF GABd|1 gedB cABG:|2 gedB cABc|]
d2gd edgd|~d2gd cABc|d2gd edef|gedB cABc|
d2gd edgd|~d2gd BGAB|~c3A ~B3A|GABd e2dB|]
</abc>
